X:1182
T:Polska efter Pekkos Per 
T:(SvL. Dalarna 1235)
S:efter Pekkos Per
S:efter Hjort Anders Olsson
O:Bingsjö, Dalarna
R:Polska
B:Svenska Låtar Dalarna, nr 1235
Z:Jonas Brunskog
M:3/4
L:1/16
K:D
|:A4 d2>(^c2{dc}) (BA)Bc|(d4{cd}) (B2{cB})A^G A4-|LA4 (de)dc dcde|(f4{ef}) ([ee]4 L[ee]4):|
|:e4 Tf2>e2 d2>(c2|B)ABc d2>(B2{cB}) A4|(BA)GA BcBA G4|LB4 ABAG (F4{EF})|A4 BcBA B2d2|cdec d4 [dD]4:|
(:musicend:)

(:music:)
